X: 20
T: Vals fr\aan Norra R\aada
O: V\"armland
R: waltz
S: http://www.folksweden.com/files/Vals_fr_n_Norra_R_da.pdf
Z: 2021 John Chambers <jc:trillian.mit.edu>
M: 3/4
L: 1/8
K: Dm
A2 |\
"Dm"d3 f ed | "A7"^c2 d2 e2 | "Dm"f2 a2 ^ga | "A7"ba gf ef |\
"Dm"d3 f ed | "A7"^c2 d2 e2 | "Dm"f2 a2 "A7"^c2 | "Dm"d4 :|
|: a2 |\
"Dm"a2 ^ga b2 | "A7"a2 a2 g2 | "Dm"f3 a gf | "A7"e4 g2 |\
"Dm"f2 e2 d2 | "A7"^c2 d2 e2 | "Dm"f2 a2 "A7"^c2 | "Dm"d4 :|
